!!!OTL: Schuettensam. (♱ 1474.)
!!!ARE: Europa, Mitteleuropa, Deutschland
!!!SCT: A0373A
!!!TXL: @@GMH
!!!YEM: Copyright 1995, estate of Helmut Schaffrath.
**kern	**text
!! Mixed meters:  4/2; 6/2
*M4/2	*
*met(c|)	*
*clefC3	*
*k[b-]	*
*G:dor	*
=1	=1
!LO:TX:a:t=dor. tr.	!
2ryy	.
{2G	3._Der
2G	Schü-
2G	-ten-
=2	=2
2d	-ſam
2d	der
*lig	*
2e	het
2e	ein
*Xlig	*
=3	=3
1c	knecht,
2r}	.
{2c	dem
=4	=4
2.d	te-
4e	-ten
2f	die
*lig	*
1g	gul-
=5-	=5-
.	.
2f	.
*Xlig	*
1e	-den
=6	=6
1d	not;
2r}	.
{2d\	er
=7	=7
2.f	die-
4e	-net
2d	ſei-
2c	-nem
=8	=8
*M6/2	*
*lig	*
4B-	herrn
4A	.
*Xlig	*
*lig	*
4B-	nit
4c/	.
*Xlig	*
1d}	recht,
*lig	*
{2.f	er
4e	.
*Xlig	*
=9	=9
2d	gab
1c	jn
2B-	in
1A	den
=10	=10
1G	tot;
2r}	.
{2d	dar-
2d	-von
2d	ward
=11	=11
*M4/2	*
2c/	im
2A	ſein
2B-	ſe-
2G	-ckel
=12	=12
1F	ſchwer,
2r}	.
{2f	ſein
=13	=13
2f	herʒ
2d	war
2e	al-
2f	-ler
=14	=14
1g	un-
*lig	*
2.f	-treu
4e}	.
*Xlig	*
=15	=15
{4d	vol
4e	.
4f	.
4e	.
2d	.
4c/	.
4B-	.
=16	=16
1A	.
2r}	.
{2G	und
=17	=17
*M6/2	*
2B-	al-
1c	-ler
2B-	frum-
1A	-keit
=18	=18
0.G/ll}	ler.
==	==
!!!GTL: Einige historisch-politische Lieder
!!!AGN: Romanze, Ballade, Lied, Personenlied
!! Aus einem fliegenden Blatt von 1540.
!!!ONB: ESAC (Essen Associative Code) Database: ALTDEU
!!!AMT: irregular
!!!AIN: vox
!!!EED: Helmut Schaffrath
!!!EEV: 1.0
!!!RDF**kern: l = terminal long
!!!AMD: Dorian
!!!URL-scan: https://rosdok.uni-rostock.de/mcrviewer/recordIdentifier/rosdok_ppn738218359/iview2/phys_0524.iview2?x=-948.0634874302073&y=290.3754826663062&scale=0.3669911794666851&rotation=0&layout=singlePageLayout&logicalDiv=log_0014
!!!ENC: Anna Maria Matuszewska
!!!EEV: 2024/14/03
*-	*-
